icons/arrow-flip-right-filled.svg

<svg viewBox="0 0 24 24"><path fill="currentColor" fill-rule="evenodd" d="M18 2.4a3.6 3.6 0 0 1 3.6 3.6v12a3.6 3.6 0 0 1-3.6 3.6h-12a3.6 3.6 0 0 1-3.6-3.6v-12a3.6 3.6 0 0 1 3.6-3.6zm-6 15.6a1 1 0 1 0 0-2h-3.6a2.4 2.4 0 0 1 0-4.8h8.1l-1.5 1.5a1 1 0 1 0 1.4 1.4l3.3-3.2a1 1 0 0 0 0-1.4l-3.3-3.2a1 1 0 1 0-1.4 1.4l1.5 1.5h-8.1a4.4 4.4 0 0 0 0 8.8z" clip-rule="evenodd"/></svg>

<svg viewBox="0 0 24 24"><path fill="currentColor" fill-rule="evenodd" d="M18 2.4A3.6 3.6 0 0 1 21.6 6v12a3.6 3.6 0 0 1-3.6 3.6H6A3.6 3.6 0 0 1 2.4 18V6A3.6 3.6 0 0 1 6 2.4zM12 18a1 1 0 1 0 0-2H8.4a2.4 2.4 0 0 1 0-4.8h8.1L15 12.7a1 1 0 1 0 1.4 1.4l3.3-3.2a1 1 0 0 0 0-1.4l-3.3-3.2A1 1 0 1 0 15 7.7l1.5 1.5H8.4a4.4 4.4 0 0 0 0 8.8z" clip-rule="evenodd"/></svg>
